X:39
T:De la Pharaonne. [FJ39]
% beautiful!
S:Festin joyeux.  Music page 19.
Z:transcribed by Eric Conrad, 2021.
N:NB The meter is given simply as "2"
N:NB In the MS, the G is the bottom line of the staff
N:NB Repeat marks were added at beginning and end.
N:NB The MS repeat mark is 4 vertical dots enclosed by bars on both sides.
N:NB The plus signs seem to indicate some kind of roll or trill.
N:NB1 Key signature changed from D Dorian to D minor.
M:2/2
L:1/4
% K:Dmin clef=treble1 % staff GBdfa
K:Dmin % no accidentals in sig and end D (D Dorian), no seventh + some raised sixths suggest gapped D melodic minor
|: "_NB1"df | ed ^cd | e/d/e/f/ ed | gf "^+"ed | a2 df |
ed ^cd | e/d/e/f/ ea | de "^+"e>d | d2 :: fg |
af fg | af fc | fg ag/f/ | e3 e/f/ | ge ce/f/ |
ge cf/e/ | df ed | "^+"^c2 g>c | d>e e>d | d2 :|

